src/assets/story-inverse.svg

<?xml version="1.0" encoding="UTF-8" standalone="no"?>
<svg
   xmlns:dc="http://purl.org/dc/elements/1.1/"
   xmlns:cc="http://creativecommons.org/ns#"
   xmlns:rdf="http://www.w3.org/1999/02/22-rdf-syntax-ns#"
   xmlns:svg="http://www.w3.org/2000/svg"
   xmlns="http://www.w3.org/2000/svg"
   width="24.680685mm"
   height="24.680685mm"
   viewBox="0 0 24.680685 24.680685"
   version="1.1"
   id="svg6165">
  <defs
     id="defs6159">
    <clipPath
       clipPathUnits="userSpaceOnUse"
       id="clipPath1056-3">
      <path
         d="M 0,841.89 H 595.276 V 0 H 0 Z"
         id="path1054-6" />
    </clipPath>
  </defs>
  <metadata
     id="metadata6162">
    <rdf:RDF>
      <cc:Work
         rdf:about="">
        <dc:format>image/svg+xml</dc:format>
        <dc:type
           rdf:resource="http://purl.org/dc/dcmitype/StillImage" />
        <dc:title></dc:title>
      </cc:Work>
    </rdf:RDF>
  </metadata>
  <g
     style="fill:#ffffff"
     id="layer1"
     transform="translate(-346.75221,-159.92751)">
    <g
       style="fill:#ffffff"
       transform="matrix(0.35277777,0,0,-0.35277777,254.22178,313.39882)"
       id="g1050-4">
      <g
         style="fill:#ffffff"
         id="g1052-9"
         clip-path="url(#clipPath1056-3)">
        <g
           style="fill:#ffffff"
           id="g1058-1"
           transform="translate(332.252,400.0558)">
          <path
             transform="matrix(0.75000004,0,0,-0.75000004,-69.961012,34.980994)"
             id="path1060-23"
             d="M 46.640625 0 C 20.88196 4.7369516e-15 1.4489335e-16 20.88196 0 46.640625 C -1.4210855e-14 72.39929 20.88196 93.28125 46.640625 93.28125 C 72.39929 93.28125 93.28125 72.39929 93.28125 46.640625 C 93.28125 20.88196 72.39929 0 46.640625 0 z M 46.658203 17.300781 C 62.826202 17.314115 76.038703 30.550766 75.970703 46.634766 C 76.06137 62.368098 63.264322 75.999135 46.597656 75.980469 C 30.41099 75.961802 17.24726 62.869728 17.308594 46.539062 C 17.369927 29.931063 30.958204 17.287448 46.658203 17.300781 z M 47.660156 19.378906 L 47.660156 32.1875 C 47.816156 32.212833 47.90862 32.239615 48.001953 32.238281 C 51.419286 32.232948 54.838526 32.224177 58.255859 32.214844 C 58.277193 32.214844 58.302359 32.192495 58.318359 32.173828 C 58.333026 32.157828 58.334568 32.130349 58.365234 32.041016 C 55.902568 26.965016 52.368156 22.753573 47.660156 19.378906 z M 45.574219 19.408203 C 40.895552 22.777536 37.375937 26.995183 34.835938 32.228516 L 45.574219 32.228516 L 45.574219 19.408203 z M 51.353516 19.582031 C 55.373515 23.130031 58.498354 27.325662 60.679688 32.236328 C 62.305021 32.384328 69.485167 32.321865 70.0625 32.144531 C 65.589167 25.300532 59.408182 21.063365 51.353516 19.582031 z M 41.957031 19.589844 C 37.874365 20.23251 34.171693 21.776531 30.818359 24.144531 C 27.757026 26.305864 25.222937 28.968573 23.210938 32.253906 L 32.617188 32.253906 C 34.793187 27.320573 37.930365 23.135177 41.957031 19.589844 z M 47.712891 34.294922 L 47.712891 45.599609 L 61.585938 45.599609 C 61.541938 41.648943 60.75051 37.900255 59.339844 34.294922 L 47.712891 34.294922 z M 34 34.300781 C 32.765333 36.719448 31.419427 43.460511 31.746094 45.589844 L 45.564453 45.589844 L 45.564453 34.300781 L 34 34.300781 z M 22.044922 34.304688 C 20.279589 37.883354 19.306917 41.611422 19.15625 45.607422 L 29.652344 45.607422 C 29.741677 41.690089 30.463672 37.954021 31.763672 34.304688 L 22.044922 34.304688 z M 61.53125 34.308594 C 62.876583 37.99526 63.54025 41.739703 63.65625 45.595703 L 74.083984 45.595703 C 74.346651 43.041037 72.813698 37.05126 71.207031 34.308594 L 61.53125 34.308594 z M 19.146484 47.648438 C 19.314484 51.683104 20.270255 55.441802 22.044922 58.980469 L 31.958984 58.980469 C 30.568318 55.301802 29.821208 51.545771 29.671875 47.648438 L 19.146484 47.648438 z M 31.705078 47.658203 C 31.849078 51.61687 32.666297 55.373896 34.154297 58.976562 L 45.550781 58.976562 L 45.550781 47.658203 L 31.705078 47.658203 z M 63.636719 47.658203 C 63.482052 51.567536 62.705703 55.316094 61.345703 58.996094 L 71.25 58.996094 C 73.016667 55.441427 73.989901 51.686203 74.115234 47.658203 L 63.636719 47.658203 z M 47.707031 47.664062 L 47.707031 58.976562 L 59.150391 58.976562 C 60.623724 55.337896 61.451797 51.605396 61.591797 47.664062 L 47.707031 47.664062 z M 23.236328 61.078125 C 25.422995 64.599458 28.194651 67.42949 31.583984 69.660156 C 34.946651 71.872156 40.84463 74.035333 42.779297 73.75 C 38.461964 70.274 35.160932 66.039458 32.822266 61.078125 L 23.236328 61.078125 z M 47.6875 61.082031 L 47.6875 73.337891 C 52.236833 70.071224 55.702693 66.044698 58.193359 61.082031 L 47.6875 61.082031 z M 35.099609 61.083984 C 37.596943 66.037317 41.043646 70.054547 45.570312 73.310547 L 45.570312 61.083984 L 35.099609 61.083984 z M 60.416016 61.09375 C 58.094682 66.111083 54.782609 70.30987 50.474609 73.783203 C 52.454609 73.932536 57.627016 72.148948 60.791016 70.238281 C 64.595015 67.940948 67.679646 64.90975 70.070312 61.09375 L 60.416016 61.09375 z "
             style="fill:#ffffff;fill-opacity:1;fill-rule:nonzero;stroke:none;stroke-width:1.33333325" />
        </g>
        <g
           style="fill:#ffffff"
           id="g1062-18"
           transform="translate(296.4683,380.0538)" />
      </g>
    </g>
  </g>
</svg>

<svg xmlns="http://www.w3.org/2000/svg" width="93.281" height="93.281" viewBox="0 0 24.681 24.681"><defs><clipPath clipPathUnits="userSpaceOnUse" id="a"><path d="M0 841.89h595.276V0H0z"/></clipPath></defs><g style="fill:#fff" clip-path="url(#a)" transform="matrix(.35278 0 0 -.35278 -92.53 153.471)"><g style="fill:#fff"><path transform="matrix(.75 0 0 -.75 262.291 435.037)" d="M46.64 0C20.883 0 0 20.882 0 46.64 0 72.4 20.882 93.282 46.64 93.282c25.76 0 46.641-20.882 46.641-46.64C93.281 20.882 72.4 0 46.641 0zm.018 17.3c16.168.014 29.38 13.25 29.313 29.335.09 15.733-12.707 29.364-29.373 29.345-16.187-.018-29.35-13.11-29.29-29.44.062-16.609 13.65-29.253 29.35-29.24zm1.002 2.079v12.808c.156.026.249.053.342.051 3.417-.005 6.837-.014 10.254-.023.021 0 .046-.023.062-.041.015-.016.017-.044.047-.133-2.462-5.076-5.997-9.287-10.705-12.662zm-2.086.03c-4.678 3.369-8.198 7.586-10.738 12.82h10.738v-12.82zm5.78.173c4.02 3.548 7.144 7.744 9.326 12.654 1.625.148 8.805.086 9.383-.091-4.474-6.844-10.655-11.082-18.71-12.563zm-9.397.008c-4.083.643-7.785 2.187-11.139 4.555a27.146 27.146 0 0 0-7.607 8.109h9.406c2.176-4.933 5.313-9.119 9.34-12.664zm5.756 14.705V45.6h13.873c-.044-3.951-.835-7.7-2.246-11.305H47.713zM34 34.3c-1.235 2.418-2.58 9.16-2.254 11.289h13.818V34.3H34zm-11.955.004c-1.765 3.578-2.738 7.306-2.889 11.302h10.496c.09-3.917.812-7.653 2.112-11.302h-9.72zm39.486.004c1.346 3.686 2.01 7.43 2.125 11.287h10.428c.263-2.555-1.27-8.545-2.877-11.287h-9.676zm-42.385 13.34c.168 4.034 1.124 7.793 2.899 11.331h9.914a35.59 35.59 0 0 1-2.287-11.332H19.146zm12.56.01a32.445 32.445 0 0 0 2.448 11.318h11.397V47.658H31.705zm31.93 0c-.154 3.909-.93 7.657-2.29 11.337h9.904c1.767-3.555 2.74-7.31 2.865-11.338H63.637zm-15.929.005v11.313H59.15c1.474-3.64 2.302-7.372 2.442-11.313H47.707zm-24.47 13.414c2.186 3.521 4.958 6.351 8.347 8.582 3.363 2.212 9.26 4.375 11.195 4.09-4.317-3.476-7.618-7.71-9.957-12.672h-9.586zm24.45.004v12.256c4.55-3.267 8.016-7.293 10.506-12.256H47.688zm-12.587.002c2.497 4.953 5.944 8.97 10.47 12.227V61.084H35.1zm25.316.01c-2.321 5.017-5.633 9.216-9.941 12.69 1.98.149 7.152-1.635 10.316-3.546 3.804-2.297 6.889-5.328 9.28-9.144h-9.655z" style="fill:#fff;fill-opacity:1;fill-rule:nonzero;stroke:none;stroke-width:1.33333325"/></g></g></svg>
